packages/elvis-assets-icons/icons/svg/src/cut_electricity_pillar-color.svg

<svg width="24" height="24" viewBox="0 0 24 24" fill="none" xmlns="http://www.w3.org/2000/svg">
<path d="M0.750009 4.17997H1.93501L7.15001 8.08997V21.95C7.15001 22.345 7.47001 22.66 7.86001 22.66C8.25501 22.66 8.57001 22.34 8.57001 21.95V8.08997L13.785 4.17997H14.97C15.365 4.17997 15.68 3.85997 15.68 3.46997C15.68 3.07997 15.36 2.75997 14.97 2.75997H14.26V2.04997C14.26 1.65497 13.94 1.33997 13.55 1.33997C13.16 1.33997 12.84 1.65997 12.84 2.04997V2.75997H11.42V2.04997C11.42 1.65497 11.1 1.33997 10.71 1.33997C10.32 1.33997 10 1.65997 10 2.04997V2.75997H5.73501V2.04997C5.73501 1.65497 5.41501 1.33997 5.02501 1.33997C4.63501 1.33997 4.30501 1.65497 4.30501 2.04997V2.75997H2.88501V2.04997C2.88501 1.65497 2.56501 1.33997 2.17501 1.33997C1.78501 1.33997 1.46001 1.65497 1.46001 2.04997V2.75997H0.750009C0.355009 2.75997 0.0400085 3.07997 0.0400085 3.46997C0.0400085 3.85997 0.355009 4.17997 0.750009 4.17997ZM11.415 4.17997L7.86001 6.84497L4.30501 4.17997H11.415Z" fill="black"/>
<path d="M15.6 9.70998L15.955 9.09498C16.15 8.75498 16.035 8.31998 15.695 8.12498C15.355 7.92998 14.92 8.04498 14.725 8.38498L14.37 8.99998L13.755 8.64498C13.415 8.44998 12.98 8.56498 12.785 8.90498C12.59 9.24498 12.705 9.67998 13.045 9.87498L14.02 10.44L15.43 15.7L12.025 21.6C11.83 21.94 11.945 22.375 12.285 22.57C12.395 22.635 12.52 22.665 12.64 22.665C12.885 22.665 13.125 22.54 13.255 22.31L16.66 16.41L21.92 15L22.895 15.565C23.005 15.63 23.13 15.66 23.25 15.66C23.495 15.66 23.735 15.535 23.865 15.305C24.06 14.965 23.945 14.53 23.605 14.335L22.99 13.98L23.345 13.365C23.54 13.025 23.425 12.59 23.085 12.395C22.745 12.2 22.31 12.315 22.115 12.655L21.76 13.27L15.6 9.70998ZM16.695 14.925L15.76 11.445L20.175 13.995L16.695 14.925Z" fill="#29D305"/>
</svg>

<svg width="24" height="24" fill="none" xmlns="http://www.w3.org/2000/svg"><path d="M.75 4.18h1.185L7.15 8.09v13.86a.71.71 0 101.42 0V8.09l5.215-3.91h1.185a.71.71 0 100-1.42h-.71v-.71a.71.71 0 10-1.42 0v.71h-1.42v-.71a.71.71 0 10-1.42 0v.71H5.735v-.71a.71.71 0 00-.71-.71c-.39 0-.72.315-.72.71v.71h-1.42v-.71a.71.71 0 00-.71-.71.714.714 0 00-.715.71v.71H.75a.71.71 0 100 1.42zm10.665 0L7.86 6.845 4.305 4.18h7.11z" fill="#000"/><path d="M15.6 9.71l.355-.615a.71.71 0 00-1.23-.71L14.37 9l-.615-.355a.71.71 0 00-.71 1.23l.975.565 1.41 5.26-3.405 5.9a.71.71 0 001.23.71l3.405-5.9L21.92 15l.975.565a.7.7 0 00.355.095.71.71 0 00.355-1.325l-.615-.355.355-.615a.71.71 0 00-1.23-.71l-.355.615-6.16-3.56zm1.095 5.215l-.935-3.48 4.415 2.55-3.48.93z" fill="#29D305"/></svg>
